assets/icons/standard/expense.svg

<svg xmlns="http://www.w3.org/2000/svg" width="100" height="100" viewBox="0 0 100 100"><path d="M75,23.8H25a4.59,4.59,0,0,0-4.6,4.6V74a1.12,1.12,0,0,0,1.9.8l4.1-4.1a1,1,0,0,1,1.6,0l5.2,5.2a1,1,0,0,0,1.6,0l4.1-4.1a1,1,0,0,1,1.6,0l4.1,4.1a1,1,0,0,0,1.6,0l4.1-4.1a1,1,0,0,1,1.6,0L56,75.9a1,1,0,0,0,1.6,0l4.1-4.1a1,1,0,0,1,1.6,0l4.1,4.1a1,1,0,0,0,1.6,0l4.1-4.1a1,1,0,0,1,1.6,0l3,3a1.12,1.12,0,0,0,1.9-.8V28.3A4.5,4.5,0,0,0,75,23.8ZM53,50.4h0v1.1a5.45,5.45,0,0,1-3.1,1,5.6,5.6,0,0,1,0-11.2,5.59,5.59,0,0,1,5.6,5.2A4.48,4.48,0,0,0,53,50.4ZM68,64.5a1.52,1.52,0,0,1-1.5,1.4h-9a1.43,1.43,0,0,1-1.4-1.4V63.1a1.43,1.43,0,0,1,1.4-1.4h9.1A1.43,1.43,0,0,1,68,63.1Zm0-6.3a1.52,1.52,0,0,1-1.5,1.4h-9a1.43,1.43,0,0,1-1.4-1.4V56.8a1.43,1.43,0,0,1,1.4-1.4h9.1A1.43,1.43,0,0,1,68,56.8Zm0-6.4a1.52,1.52,0,0,1-1.5,1.4h-9a1.43,1.43,0,0,1-1.4-1.4V50.4A1.43,1.43,0,0,1,57.5,49h9.1A1.43,1.43,0,0,1,68,50.4Zm.1-5.7a3.4,3.4,0,0,0-1.4-.2H63.8v-3a4,4,0,0,1-4-4H40a4,4,0,0,1-4,4v8.4a4,4,0,0,1,4,4H53.2a3.4,3.4,0,0,0-.2,1.4v1.4a6.64,6.64,0,0,0,.3,1.5h-18a3.37,3.37,0,0,1-3.4-3.4V38.1a3.37,3.37,0,0,1,3.4-3.4H64.7a3.37,3.37,0,0,1,3.4,3.4Z" fill="#fff"/></svg>

<?xml version="1.0"?><svg xmlns="http://www.w3.org/2000/svg" width="100" height="100" viewBox="0 0 100 100"><title></title><path d="m75 23.8h-50a4.6 4.6 0 0 0-4.6 4.6v45.6a1.1 1.1 0 0 0 1.9 0.8l4.1-4.1a1 1 0 0 1 1.6 0l5.2 5.2a1 1 0 0 0 1.6 0l4.1-4.1a1 1 0 0 1 1.6 0l4.1 4.1a1 1 0 0 0 1.6 0l4.1-4.1a1 1 0 0 1 1.6 0l4.1 4.1a1 1 0 0 0 1.6 0l4.1-4.1a1 1 0 0 1 1.6 0l4.1 4.1a1 1 0 0 0 1.6 0l4.1-4.1a1 1 0 0 1 1.6 0l3 3a1.1 1.1 0 0 0 1.9-0.8v-45.7a4.5 4.5 0 0 0-4.6-4.5z m-22 26.6v1.1a5.5 5.5 0 0 1-3.1 1 5.6 5.6 0 0 1 0-11.2 5.6 5.6 0 0 1 5.6 5.2 4.5 4.5 0 0 0-2.5 3.9z m15 14.1a1.5 1.5 0 0 1-1.5 1.4h-9a1.4 1.4 0 0 1-1.4-1.4v-1.4a1.4 1.4 0 0 1 1.4-1.4h9.1a1.4 1.4 0 0 1 1.4 1.4z m0-6.3a1.5 1.5 0 0 1-1.5 1.4h-9a1.4 1.4 0 0 1-1.4-1.4v-1.4a1.4 1.4 0 0 1 1.4-1.4h9.1a1.4 1.4 0 0 1 1.4 1.4z m0-6.4a1.5 1.5 0 0 1-1.5 1.4h-9a1.4 1.4 0 0 1-1.4-1.4v-1.4a1.4 1.4 0 0 1 1.4-1.4h9.1a1.4 1.4 0 0 1 1.4 1.4z m0.1-5.7a3.4 3.4 0 0 0-1.4-0.2h-2.9v-3a4 4 0 0 1-4-4h-19.8a4 4 0 0 1-4 4v8.4a4 4 0 0 1 4 4h13.2a3.4 3.4 0 0 0-0.2 1.4v1.4a6.6 6.6 0 0 0 0.3 1.5h-18a3.4 3.4 0 0 1-3.4-3.4v-18.1a3.4 3.4 0 0 1 3.4-3.4h29.4a3.4 3.4 0 0 1 3.4 3.4z" fill="#fff"></path></svg>
